picto/cloak-room.svg

<svg class="color-immutable" width="24" height="24" viewBox="0 0 24 24" fill="none" xmlns="http://www.w3.org/2000/svg"><path d="M0 22.5V1.5C0 0.675 0.675 0 1.5 0H22.5C23.325 0 24 0.675 24 1.5V22.5C24 23.325 23.325 24 22.5 24H1.5C0.675 24 0 23.325 0 22.5Z" fill="#2D327D"/><path d="M20.182 13.273C20.18 13.271 14.65 10.679 14.65 10.679C14.037 10.319 13.618 9.66399 13.59 8.90799V7.19599C13.59 6.31999 12.873 5.60199 11.997 5.60199C11.12 5.60199 10.404 6.31899 10.404 7.19599V7.26299C10.404 7.29499 10.43 7.32199 10.463 7.32199H11.228C11.26 7.32199 11.287 7.29599 11.287 7.26299V7.19599C11.287 6.80399 11.605 6.48599 11.997 6.48599C12.388 6.48599 12.707 6.80399 12.707 7.19599V12.38C12.707 12.773 12.389 13.091 11.996 13.091C11.604 13.091 11.286 12.773 11.286 12.38C11.286 12.376 11.287 12.371 11.287 12.367V8.85199C11.287 8.81999 11.261 8.79299 11.228 8.79299H10.462C10.43 8.79299 10.403 8.81999 10.403 8.85199V8.90799L10.402 8.90899C10.374 9.66499 9.95499 10.32 9.34099 10.68C9.34099 10.68 3.79799 13.272 3.79599 13.274C3.31899 13.51 2.98999 14.002 2.98999 14.572C2.98999 15.373 3.63999 16.022 4.43999 16.022H19.539C20.34 16.022 20.99 15.373 20.99 14.572C20.989 14.002 20.66 13.51 20.182 13.273ZM20.132 14.572C20.132 14.896 19.867 15.161 19.543 15.161H4.44899C4.12499 15.161 3.85999 14.896 3.85999 14.572C3.85999 14.248 4.12499 13.983 4.44899 13.983H19.543C19.867 13.983 20.132 14.248 20.132 14.572Z" fill="white"/></svg>

<svg class="color-immutable" width="24" height="24" viewBox="0 0 24 24" fill="none" xmlns="http://www.w3.org/2000/svg"><g clip-path="url(#a)"><path d="M0 22.5v-21C0 .675.675 0 1.5 0h21c.825 0 1.5.675 1.5 1.5v21c0 .825-.675 1.5-1.5 1.5h-21C.675 24 0 23.325 0 22.5Z" fill="#2D327D"/><path d="m20.182 13.273-5.532-2.594a2.145 2.145 0 0 1-1.06-1.771V7.196c0-.876-.717-1.594-1.593-1.594-.877 0-1.593.717-1.593 1.594v.067a.06.06 0 0 0 .059.059h.765a.06.06 0 0 0 .059-.059v-.067a.71.71 0 0 1 1.42 0v5.184a.71.71 0 1 1-1.421 0l.001-.013V8.852a.06.06 0 0 0-.059-.059h-.766a.06.06 0 0 0-.059.059v.056l-.001.001a2.144 2.144 0 0 1-1.061 1.771l-5.545 2.594a1.45 1.45 0 0 0 .644 2.748h15.099a1.45 1.45 0 0 0 .643-2.749Zm-.05 1.299a.59.59 0 0 1-.589.589H4.449a.59.59 0 0 1-.589-.589.59.59 0 0 1 .589-.589h15.094a.59.59 0 0 1 .589.589Z" fill="#fff"/></g><defs><clipPath id="a"><path fill="#fff" d="M0 0h24v24H0z"/></clipPath></defs></svg>
